picto/tracks-33-fr-small.svg

<svg class="color-immutable" width="24" height="24" viewBox="0 0 24 24" fill="none" xmlns="http://www.w3.org/2000/svg"><path d="M0 22.5V1.5C0 0.675 0.675 0 1.5 0H22.5C23.325 0 24 0.675 24 1.5V22.5C24 23.325 23.325 24 22.5 24H1.5C0.675 24 0 23.325 0 22.5Z" fill="#2D327D"/><path d="M3.41599 13.317C3.44199 12.394 3.66999 11.62 4.09999 10.995C4.79799 9.99 5.84599 9.487 7.24599 9.487C8.32299 9.487 9.19199 9.761 9.85299 10.31C10.566 10.905 10.922 11.674 10.922 12.617C10.922 13.181 10.782 13.667 10.503 14.074C10.224 14.482 9.84499 14.757 9.36899 14.901C9.97399 15.039 10.452 15.347 10.803 15.824C11.154 16.301 11.33 16.878 11.33 17.554C11.33 18.667 10.92 19.577 10.1 20.284C9.34099 20.94 8.38199 21.268 7.22399 21.268C5.96799 21.268 4.97199 20.907 4.23599 20.184C3.49999 19.461 3.13199 18.484 3.13199 17.254C3.13199 17.228 3.13199 17.18 3.13199 17.108H5.29299C5.29299 17.8 5.45699 18.335 5.78499 18.711C6.11299 19.088 6.57699 19.276 7.17699 19.276C7.77699 19.276 8.23799 19.099 8.56099 18.745C8.85799 18.412 9.00699 18.014 9.00699 17.553C9.00699 16.999 8.81699 16.561 8.43799 16.238C8.12499 15.971 7.64299 15.838 6.99199 15.838C6.80699 15.838 6.62499 15.848 6.44599 15.869V14.216C6.57899 14.226 6.70699 14.231 6.83099 14.231C8.12299 14.231 8.76899 13.752 8.76899 12.793C8.76899 12.373 8.62799 12.033 8.34599 11.774C8.06399 11.515 7.69199 11.386 7.23099 11.386C6.70299 11.386 6.29499 11.55 6.00799 11.878C5.72099 12.206 5.56699 12.686 5.54699 13.316H3.41599V13.317Z" fill="white"/><path d="M12.963 13.317C12.989 12.394 13.217 11.62 13.647 10.994C14.344 9.989 15.393 9.487 16.792 9.487C17.869 9.487 18.738 9.761 19.399 10.31C20.112 10.905 20.468 11.674 20.468 12.617C20.468 13.181 20.328 13.667 20.049 14.074C19.769 14.482 19.391 14.757 18.915 14.901C19.52 15.039 19.998 15.347 20.349 15.824C20.7 16.301 20.876 16.878 20.876 17.554C20.876 18.667 20.466 19.577 19.646 20.284C18.887 20.94 17.928 21.268 16.77 21.268C15.514 21.268 14.518 20.907 13.782 20.184C13.046 19.461 12.678 18.484 12.678 17.254C12.678 17.228 12.678 17.18 12.678 17.108H14.839C14.839 17.8 15.003 18.335 15.331 18.711C15.659 19.088 16.123 19.276 16.723 19.276C17.323 19.276 17.784 19.099 18.107 18.745C18.404 18.412 18.553 18.014 18.553 17.553C18.553 16.999 18.363 16.561 17.984 16.238C17.671 15.971 17.189 15.838 16.538 15.838C16.353 15.838 16.171 15.848 15.992 15.869V14.216C16.125 14.226 16.253 14.231 16.377 14.231C17.669 14.231 18.315 13.752 18.315 12.793C18.315 12.373 18.174 12.033 17.892 11.774C17.61 11.515 17.238 11.386 16.777 11.386C16.249 11.386 15.841 11.55 15.554 11.878C15.267 12.206 15.113 12.686 15.093 13.316H12.963V13.317Z" fill="white"/><path d="M5.036 3L4.288 5.249H3.73L2.993 3H3.507L4.013 4.684L4.527 3H5.036Z" fill="white"/><path d="M5.87399 3.523C6.11799 3.523 6.31699 3.604 6.47199 3.766C6.62499 3.926 6.70099 4.139 6.70099 4.406C6.70099 4.682 6.61899 4.902 6.45599 5.066C6.30399 5.218 6.10499 5.295 5.85999 5.295C5.59899 5.295 5.38999 5.21 5.23599 5.04C5.08799 4.877 5.01399 4.667 5.01399 4.409C5.01399 4.155 5.08599 3.948 5.22899 3.789C5.38899 3.612 5.60299 3.523 5.87399 3.523ZM5.85099 3.871C5.73299 3.871 5.63899 3.919 5.56999 4.014C5.49899 4.11 5.46299 4.242 5.46299 4.409C5.46299 4.582 5.49799 4.715 5.56799 4.807C5.63999 4.9 5.73799 4.947 5.86199 4.947C5.97799 4.947 6.06999 4.904 6.13699 4.819C6.21399 4.725 6.25199 4.588 6.25199 4.408C6.25199 4.24 6.21799 4.109 6.14999 4.016C6.07999 3.919 5.97999 3.871 5.85099 3.871Z" fill="white"/><path d="M7.44899 3V3.401H7.00299V3H7.44899ZM7.44899 3.572V5.249H7.00299V3.572H7.44899Z" fill="white"/><path d="M9.32099 4.726C9.29699 4.82 9.25499 4.909 9.19299 4.992C9.04499 5.194 8.83299 5.295 8.55599 5.295C8.30599 5.295 8.10499 5.216 7.95499 5.058C7.88099 4.981 7.82499 4.888 7.78599 4.78C7.74399 4.664 7.72299 4.543 7.72299 4.417C7.72299 4.173 7.79299 3.968 7.93399 3.802C8.09099 3.616 8.29399 3.524 8.54299 3.524C8.74399 3.524 8.91499 3.586 9.05699 3.71C9.15899 3.799 9.23199 3.909 9.27799 4.04C9.32399 4.171 9.34699 4.335 9.34699 4.533H8.17699C8.18099 4.615 8.19399 4.683 8.21499 4.738C8.27499 4.885 8.38999 4.958 8.55999 4.958C8.64299 4.958 8.71099 4.94 8.76299 4.903C8.81499 4.867 8.85799 4.808 8.89199 4.727H9.32099V4.726ZM8.89199 4.232C8.88399 4.151 8.86499 4.084 8.83599 4.031C8.80799 3.978 8.76699 3.937 8.71399 3.906C8.66099 3.875 8.60399 3.86 8.54099 3.86C8.44199 3.86 8.35999 3.893 8.29499 3.96C8.22999 4.026 8.19199 4.117 8.17999 4.232H8.89199Z" fill="white"/></svg>

<svg class="color-immutable" width="24" height="24" viewBox="0 0 24 24" fill="none" xmlns="http://www.w3.org/2000/svg"><g clip-path="url(#a)"><path d="M0 22.5v-21C0 .675.675 0 1.5 0h21c.825 0 1.5.675 1.5 1.5v21c0 .825-.675 1.5-1.5 1.5h-21C.675 24 0 23.325 0 22.5Z" fill="#2D327D"/><path d="M3.416 13.317c.026-.923.254-1.697.684-2.322.698-1.005 1.746-1.508 3.146-1.508 1.077 0 1.946.274 2.607.823.713.595 1.069 1.364 1.069 2.307 0 .564-.14 1.05-.419 1.457a2.055 2.055 0 0 1-1.134.827 2.373 2.373 0 0 1 1.434.923c.351.477.527 1.054.527 1.73 0 1.113-.41 2.023-1.23 2.73-.759.656-1.718.984-2.876.984-1.256 0-2.252-.361-2.988-1.084-.736-.723-1.104-1.7-1.104-2.93v-.146h2.161c0 .692.164 1.227.492 1.603.328.377.792.565 1.392.565.6 0 1.061-.177 1.384-.531.297-.333.446-.731.446-1.192 0-.554-.19-.992-.569-1.315-.313-.267-.795-.4-1.446-.4-.185 0-.367.01-.546.031v-1.653c.133.01.261.015.385.015 1.292 0 1.938-.479 1.938-1.438 0-.42-.141-.76-.423-1.019-.282-.259-.654-.388-1.115-.388-.528 0-.936.164-1.223.492-.287.328-.441.808-.461 1.438H3.416v.001ZM12.963 13.317c.026-.923.254-1.697.684-2.323.697-1.005 1.746-1.507 3.145-1.507 1.077 0 1.946.274 2.607.823.713.595 1.069 1.364 1.069 2.307 0 .564-.14 1.05-.419 1.457-.28.408-.658.683-1.134.827a2.373 2.373 0 0 1 1.434.923c.351.477.527 1.054.527 1.73 0 1.113-.41 2.023-1.23 2.73-.759.656-1.718.984-2.876.984-1.256 0-2.252-.361-2.988-1.084-.736-.723-1.104-1.7-1.104-2.93v-.146h2.161c0 .692.164 1.227.492 1.603.328.377.792.565 1.392.565.6 0 1.061-.177 1.384-.531.297-.333.446-.731.446-1.192 0-.554-.19-.992-.569-1.315-.313-.267-.795-.4-1.446-.4-.185 0-.367.01-.546.031v-1.653c.133.01.261.015.385.015 1.292 0 1.938-.479 1.938-1.438 0-.42-.141-.76-.423-1.019-.282-.259-.654-.388-1.115-.388-.528 0-.936.164-1.223.492-.287.328-.441.808-.461 1.438h-2.13v.001ZM5.036 3l-.748 2.249H3.73L2.993 3h.514l.506 1.684L4.527 3h.509ZM5.874 3.523a.79.79 0 0 1 .598.243c.153.16.229.373.229.64 0 .276-.082.496-.245.66a.807.807 0 0 1-.596.229c-.261 0-.47-.085-.624-.255-.148-.163-.222-.373-.222-.631 0-.254.072-.461.215-.62.16-.177.374-.266.645-.266Zm-.023.348a.33.33 0 0 0-.281.143.652.652 0 0 0-.107.395c0 .173.035.306.105.398.072.093.17.14.294.14a.332.332 0 0 0 .275-.128c.077-.094.115-.231.115-.411 0-.168-.034-.299-.102-.392a.347.347 0 0 0-.299-.145ZM7.449 3v.401h-.446V3h.446Zm0 .572v1.677h-.446V3.572h.446ZM9.321 4.726a.752.752 0 0 1-.128.266c-.148.202-.36.303-.637.303-.25 0-.451-.079-.601-.237a.775.775 0 0 1-.169-.278 1.058 1.058 0 0 1-.063-.363c0-.244.07-.449.211-.615a.76.76 0 0 1 .609-.278.754.754 0 0 1 .735.516c.046.131.069.295.069.493h-1.17c.004.082.017.15.038.205.06.147.175.22.345.22a.343.343 0 0 0 .203-.055.39.39 0 0 0 .129-.176h.429v-.001Zm-.429-.494a.525.525 0 0 0-.056-.201.334.334 0 0 0-.295-.171.328.328 0 0 0-.246.1.44.44 0 0 0-.115.272h.712Z" fill="#fff"/></g><defs><clipPath id="a"><path fill="#fff" d="M0 0h24v24H0z"/></clipPath></defs></svg>
